!!!OTL: ICH LEBE ALS LANDMANN ZUFRIEDEN
!!!ARE: Europa, Mitteleuropa, Deutschland, Hessen, Ziegenhain, Schoenau
!!!SCT: E1551
!!!YEM: Copyright 1995, estate of Helmut Schaffrath.
**kern
*ICvox
*Ivox
*M6/8
*k[b-e-]
*B-:
{8f
=1
8.dd
16cc
8b-
8cc
8b-
8g
=2
8f
8d
4.r}
{8b-
=3
8.a
16g
8f
8f
8g
8a
=4
4.b-
4r}
{8f
=5
8.dd
16cc
8b-
8cc
8b-
8g
=6
8f
8d
4.r}
{8b-
=7
8.a
16g
8f
8f
8g
8a
=8
4.b-
4r}
{8dd
=9
8dd
8b-
8dd
8ff
8ee-
8cc
=10
8cc
8b-
8cc
8dd
8b-}
{8f
=11
8g
8ee-
8dd
8cc
8b-
8a
=12
4.b-
4r}
==
!!!AGN: Staende -, Bauern - Lied
!!!ONB: ESAC (Essen Associative Code) Database: ERK3
!!!AMT: compound duple
!!!AIN: vox
!!!EED: Helmut Schaffrath
!!!EEV: 1.0
*-
